X:1
T:Ellipsis
T:Ellipsis
%%score { ( 1 3 4 ) | ( 2 5 6 ) }
L:1/8
M:4/4
K:C
V:1 treble nm="Piano" snm="Pno."
V:3 treble 
V:4 treble 
V:2 bass 
V:5 bass 
V:6 bass 
V:1
"""^Example from the textbook \"Harmony\"\nby Dubovsky, Evseev, Sposobin, Sokolov (1984 edition, page 429):\n""_C:" ([FG]8 | %1
"""_D♭:" [_E_A]8 |"""""_D♭:""_=""_C:" !breath![_D_A]8) |] %3
[K:F][M:3/8][Q:1/4=80]"^Bach, Toccata in F major, BWV 540, mm. 423-425" z F"""_F:"E | %4
"""_G♭:" [_DF]2 z |"" z/"_G♭:" _G/B/G/_d/B/ |] %6
V:2
 ([G,B,]8 | [_G,C]8 |"^Neapolitan sixth\nchord in C major\n" [F,_D]8) |][K:F][M:3/8] z C,C,, | %4
 x/ _D,/F,/D,/_A,/F,/ | _D2 z |] %6
V:3
 x8 | x8 | x8 |][K:F][M:3/8] z CC | x3 | x3 |] %6
V:4
 x8 | x8 | x8 |][K:F][M:3/8] x C_B, | x3 | x3 |] %6
V:5
 x8 | x8 | x8 |][K:F][M:3/8] x G,G, | [F,_A,]2 x | x3 |] %6
V:6
 x8 | x8 | x8 |][K:F][M:3/8] C,2 x | _C,2 z | _B,,2 z |] %6

